X:1
T:Sean McGovern's Polka
R:polka
Z:Jeff Lindqvist <jeff_lindqvist@SPRAY.SE> irtrad-l 2000-08-20
S:Lars Karlsson, a Swedish uilleann piper, who got it from a recording by
S:the Dingle-based band Quare Fellows .
D:Quare Fellows
Z:Jeff Lindqvist
M:2/4
L:1/8
K:D
AD FA | GF EF/G/ | AD FA | d2 c>B |
AD FA | GF Ed | c/B/A Bc |1 d2 c>B :|2 d2 de ||
|:f2 g>f | ed c/B/A | Aa af | g2 fe |
f2 g>f | ed c/B/A | BA Bc |1 d2 de :|2 d2 cB |]
